X:1
T:Easter Song
T:Easter Song
T:Maizie Blaikie
T:Maizie Blaikie, 1898
T:Public Domain Courtesy of the Cyber Hymnal™
C:Maizie Blaikie
Z:Public Domain
Z:Courtesy of the Cyber Hymnal™
%%score ( 1 2 ) ( 3 4 )
L:1/8
Q:1/4=105
M:4/4
K:F
V:1 treble 
V:2 treble 
V:3 bass 
V:4 bass 
V:1
 [FA]3"^Quietly" [FA] [FA]2 [FA]2 | ([EG]2 C2) [CF]2 z2 | [EG]3 [EG] [EG]2 (FG) | (A4 c4) | %4
w: 1.~Hap- py lit- tle|child- * ren,|Wide a- wake all *|day, *|
w: 2.~Li- ly bulbs and|butter- * flies|All their rest must *|take; *|
 [Ac]3 [Ac] [FA]2 [Ac]2 | [GB]4 [FA]4 | [EG]3 [EG] [FA]2 [EG]2 | F6 z2 | [Ac]3 [Ac] [Ac]2 [Ac]2 | %9
w: Light soon goes and|night comes,|Sleep- y then are|they.|Close the dear eyes|
w: But when spring calls|soft- ly,|Quick- ly then they|wake.|So, our bless- èd|
 [GB]4 [FA]4 | [EG]3 [EG] ([EG]2 FG) | (A4 c4) | (c3 ^c) (d2 A2) | (c2 B2) (=D2 _D2) | %14
w: gent- ly,|Close the tired * *|eyes; *|Sleep, * sleep *|sweet- * ly, *|
w: Je- sus|Slept one Easter * *|day, *|Till~the * Lord’s~voice *|called * Him~To *|
 [A,C]2 [CA]2 [B,G]3 [A,F] | [A,F]6 z2 |] %16
w: Till the morn says,|“Rise.”|
w: rise and live al-|way.|
V:2
 x8 | x2 C2 x4 | x6 F2 | F8 | x8 | x8 | x8 | F6 x2 | x8 | x8 | x6 F2 | F8 | F4 ^F4 | _D4 B,4 | x8 | %15
 x8 |] %16
V:3
 [F,C]3 [F,C] [F,D]2 [F,C]2 | [C,B,]4 [F,A,]2 z2 | [B,C]3 [B,C] [B,C]2 [A,C]2 | (C4 A,4) | %4
 F4 C2 E2 | E4 C4 | [B,C]3 [B,C] C2 [B,C]2 | [A,C]6 z2 | F3 C F2 (A,C) | E4 C4 | %10
 [B,C]3 [B,C] ([B,C]2 [A,C]2) | (C4 A,4) | [A,C]4 [D,C]4 | [G,B,]4 [B,,G,]4 | %14
 [C,F,]2 [C,F,]2 [C,E,]3 [C,F,] | [F,,F,]6 z2 |] %16
V:4
 x8 | x8 | x8 | F,8 | F,8- | F,8 | x4 C2 x2 | x8 | F,8- | F,8 | x8 | F,8 | x8 | x8 | x8 | x8 |] %16

